X: 732
T: The Kerry Cobbler
M:6/8
L:1/8
B:O'Neill's 732
R:Jig
Z:"Transcribed by Bob Safranek, rjs@gsp.org"
N:"Collected by F. O'Neill"
K:D
      A   | d>ed fga | g>af ecA | d>ed fga | c>AA A2   A    |
            d>ed fga | g>af ecA | dfa  gec | A>dd    d2    :|
|: (d/e/) | f>ed cAG | A>dd cAG | f>ed cAG | Ade  f2 (f/g/) |
            agf  gfe | dfe  dcA | fed  cAG | A>dd    d2    :|


